fs/arrow_circle_left_48_regular.svg

<svg viewBox="0 0 48 48" fill="none" xmlns="http://www.w3.org/2000/svg" height="1em" width="1em">
  <path d="M24.1339 32.6339C24.622 32.1457 24.622 31.3543 24.1339 30.8661L18.5178 25.25H32.75C33.4404 25.25 34 24.6904 34 24C34 23.3096 33.4404 22.75 32.75 22.75H18.5178L24.1339 17.1339C24.622 16.6457 24.622 15.8543 24.1339 15.3661C23.6457 14.878 22.8543 14.878 22.3661 15.3661L14.6161 23.1161C14.128 23.6043 14.128 24.3957 14.6161 24.8839L22.3661 32.6339C22.8543 33.122 23.6457 33.122 24.1339 32.6339ZM24 44C35.0457 44 44 35.0457 44 24C44 12.9543 35.0457 4 24 4C12.9543 4 4 12.9543 4 24C4 35.0457 12.9543 44 24 44ZM41.5 24C41.5 33.665 33.665 41.5 24 41.5C14.335 41.5 6.5 33.665 6.5 24C6.5 14.335 14.335 6.5 24 6.5C33.665 6.5 41.5 14.335 41.5 24Z" fill="#212121"/>
</svg>

<svg viewBox="0 0 48 48" fill="none" xmlns="http://www.w3.org/2000/svg" height="1em" width="1em">
  <path d="M24.134 32.634a1.25 1.25 0 0 0 0-1.768l-5.616-5.616H32.75a1.25 1.25 0 1 0 0-2.5H18.518l5.616-5.616a1.25 1.25 0 0 0-1.768-1.768l-7.75 7.75a1.25 1.25 0 0 0 0 1.768l7.75 7.75a1.25 1.25 0 0 0 1.768 0ZM24 44c11.046 0 20-8.954 20-20S35.046 4 24 4 4 12.954 4 24s8.954 20 20 20Zm17.5-20c0 9.665-7.835 17.5-17.5 17.5S6.5 33.665 6.5 24 14.335 6.5 24 6.5 41.5 14.335 41.5 24Z" fill="#212121"/>
</svg>
